X: 323
T:Apples in Winter
T:Unknown Jig 159B
M:6/8
L:1/8
R:Jig
Z:Kevin Gow
K:G
BEE dEE|BAG FGE|D2D FDF|AB^c ded|BEE BAB|def gfe|!
fdB AGF|GED E2d:||e2 e ed B|g2e feB|d2d dAF|DFA def|!
e2e edB|def g2a|bgb afa|ged e2d|e2e edB|g2e fdB|!
d2d dAF|DFA def|edB def|gba gfe|fdB AGF|GED E2||

